cssgg/chevron-down-o.svg

<svg
  width="24"
  height="24"
  viewBox="0 0 24 24"
  fill="none"
  xmlns="http://www.w3.org/2000/svg"
>
  <path
    d="M7.75745 10.5858L9.17166 9.17154L12.0001 12L14.8285 9.17157L16.2427 10.5858L12.0001 14.8284L7.75745 10.5858Z"
    fill="currentColor"
  />
  <path
    fill-rule="evenodd"
    clip-rule="evenodd"
    d="M1 12C1 5.92487 5.92487 1 12 1C18.0751 1 23 5.92487 23 12C23 18.0751 18.0751 23 12 23C5.92487 23 1 18.0751 1 12ZM12 21C7.02944 21 3 16.9706 3 12C3 7.02944 7.02944 3 12 3C16.9706 3 21 7.02944 21 12C21 16.9706 16.9706 21 12 21Z"
    fill="currentColor"
  />
</svg>

<svg viewBox="0 0 24 24" xmlns="http://www.w3.org/2000/svg"><g><path d="M7.75 10.58l1.41-1.42 2.82 2.82 2.82-2.83 1.41 1.41 -4.25 4.24 -4.25-4.25Z"/><path fill-rule="evenodd" d="M1 12C1 5.92 5.92 1 12 1c6.07 0 11 4.92 11 11 0 6.07-4.93 11-11 11C5.92 23 1 18.07 1 12Zm11 9c-4.98 0-9-4.03-9-9 0-4.98 4.02-9 9-9 4.97 0 9 4.02 9 9 0 4.97-4.03 9-9 9Z"/></g></svg>
